!!!COA: des Prez, Josquin
!!!CDT: ~1450-1521/08/27
!!!OTL: Salve sancta facies
!!!AGN: Motet
!!!SCT: NJE 22.4
!!!SCA: New Josquin Edition 22.4
!!!voices: 4
**kern	**kern	**kern	**kern
*part4	*part3	*part2	*part1
*staff4	*staff3	*staff2	*staff1
*Ivox	*Ivox	*Ivox	*Ivox
*I"[Contra grauis]	*I"[Tenor]	*I"[Contra acutus]	*I"[Discantus]
*I'Cg	*I'T	*I'Ca	*I'D
*clefF4	*clefGv2	*clefGv2	*clefG2
*k[b-]	*k[b-]	*k[b-]	*k[b-]
*F:	*F:	*F:	*F:
*M2/1	*M2/1	*M2/1	*M2/1
*met(C|)	*met(C|)	*met(C|)	*met(C|)
=1	=1	=1	=1
[0F	0r	1.c	0r
.	.	4B-	.
.	.	4c	.
=2	=2	=2	=2
0F]	0r	2d	0r
.	.	1c	.
.	.	4B-	.
.	.	4A	.
=3	=3	=3	=3
1.E	0r	1G	0r
.	.	1r	.
2D	.	.	.
=4	=4	=4	=4
1C	0r	1c	0r
[1F	.	2A	.
.	.	[2d	.
=5	=5	=5	=5
1F]	0r	4d]	0r
.	.	4c	.
.	.	4B-	.
.	.	4A	.
1E	.	1G	.
=6	=6	=6	=6
0F	1.c	1F	0r
.	.	1r	.
.	4B-	.	.
.	4c	.	.
=7	=7	=7	=7
1r	2d	0r	0r
.	1c	.	.
1F	.	.	.
.	4B-	.	.
.	4A	.	.
=8	=8	=8	=8
1E	1G	1r	0r
1F	1r	1A	.
=9	=9	=9	=9
1C	1c	1G	0r
1D	2A	2F	.
.	[2d	[2B-	.
=10	=10	=10	=10
1BB-	4d]	4B-]	0r
.	4c	4A	.
.	4B-	4G	.
.	4A	4F	.
1C	1G	1E	.
=11	=11	=11	=11
0FF	1F	2r	0f
.	.	2.F	.
.	2r	.	.
.	.	4G	.
.	[2F	[2A	.
=12	=12	=12	=12
1r	4F]	4A]	0f
.	4E	4G	.
.	4D	1c	.
.	4C	.	.
1F	1D	.	.
.	.	2Bni	.
=13	=13	=13	=13
1G	1C	0c	1e
1F	2r	.	[1a
.	[2F	.	.
=14	=14	=14	=14
1D	2F]	1F	2a]
.	2G	.	2g
1D	2A	1F	1f
.	2B-	.	.
=15	=15	=15	=15
1C	[0c	0G	0e
2r	.	.	.
2C	.	.	.
=16	=16	=16	=16
2AA	0c]	1r	1r
2.C	.	.	.
.	.	1G	1e
4BB-	.	.	.
4AA	.	.	.
4GG	.	.	.
=17	=17	=17	=17
2FF	0r	1c	1a
1F	.	.	.
.	.	1B-	1g
2E	.	.	.
=18	=18	=18	=18
2F	0r	2A	0f
2.B-	.	2.d	.
4A	.	4c	.
4G	.	4B-	.
4F	.	4A	.
=19	=19	=19	=19
1E	0r	1G	1g
1F	.	2F	1a
.	.	[2f	.
=20	=20	=20	=20
0G	0r	2f]	0b-
.	.	4e	.
.	.	4d	.
.	.	1e	.
=21	=21	=21	=21
0F	0c	1f	1a
.	.	1r	2r
.	.	.	[2cc
=22	=22	=22	=22
1r	1F	0f	4cc]
.	.	.	4b-
.	.	.	4a
.	.	.	4g
1F	1c	.	1a
=23	=23	=23	=23
4BB-	1d	1.f	1b-
4C	.	.	.
4D	.	.	.
4E	.	.	.
2F	2c	.	2a
[2G	[2B-	[2d	[2g
=24	=24	=24	=24
4G]	1B-]	1d]	2g]
4F	.	.	.
4E	.	.	2.g
4D	.	.	.
1C	2.c	1e	.
.	.	.	4f
.	.	.	4e
.	4B-	.	4d
=25	=25	=25	=25
1F	1A	2r	2c
.	.	2.c	1f
1C	1G	.	.
.	.	4B-	.
.	.	2c	2e
=26	=26	=26	=26
2.FF	1F	2.A	0f
4GG	.	4B-	.
2AA	1r	2c	.
[2BB-	.	[2d	.
=27	=27	=27	=27
1BB-]	1F	4d]	0r
.	.	4c	.
.	.	4B-	.
.	.	4A	.
2C	1E	1G	.
4BB-	.	.	.
4AA	.	.	.
=28	=28	=28	=28
2GG	1E	0r	0r
2C	.	.	.
2AA	1F	.	.
[2D	.	.	.
=29	=29	=29	=29
4D]	1D	0r	1r
4C	.	.	.
4BB-	.	.	.
4AA	.	.	.
1BB-	1D	.	1f
=30	=30	=30	=30
1C	1C	1G	1e
1r	1r	1c	1e
=31	=31	=31	=31
0r	0r	2A	1f
.	.	2.d	.
.	.	.	2.d
.	.	4c	.
.	.	4B-	.
.	.	4A	4c
=32	=32	=32	=32
0r	0r	1B-	1d
.	.	1c	1c
!!LO:TX:Z=12:t=[Cut-O/3 mensruation]
=33	=33	=33	=33
*M3/1	*M3/1	*M3/1	*M3/1
*met(O|/3)	*met(O|/3)	*met(O|/3)	*met(O|/3)
0F	0c	0.rr	0.rr
1F	1c	.	.
=34	=34	=34	=34
0F	1A	0.rr	0.rr
.	1.d	.	.
[1E	.	.	.
.	2c	.	.
=35	=35	=35	=35
1E]	0c	0.rr	0.rr
1D	.	.	.
1D	1Bni	.	.
=36	=36	=36	=36
0C	0c	0G	0cc
1r	1r	1G	1b-
=37	=37	=37	=37
0.rr	0.rr	1F	1a
.	.	0G	0b-
=38	=38	=38	=38
0.rr	0.rr	1.E	1.g
.	.	2D	2f
.	.	1E	1g
=39	=39	=39	=39
*M2/1	*M2/1	*M2/1	*M2/1
*met(C|)	*met(C|)	*met(C|)	*met(C|)
0r	1c	0F	1f
.	4F	.	1r
.	4G	.	.
.	4A	.	.
.	4B-	.	.
=40	=40	=40	=40
0r	1c	0r	1cc
.	1d	.	1f
=41	=41	=41	=41
1F	1c	1f	1cc
4BB-	1B-	1f	1dd
4C	.	.	.
4D	.	.	.
4E	.	.	.
=42	=42	=42	=42
1F	1A	2r	1cc
.	.	1f	.
1G	1r	.	1b-
.	.	2e	.
=43	=43	=43	=43
2.F	0r	2f	1a
.	.	4e	.
4G	.	4d	.
2A	.	2c	1r
[2B-	.	[2d	.
=44	=44	=44	=44
4B-]	0r	4d]	0r
4A	.	4c	.
4G	.	4B-	.
4F	.	4A	.
1E	.	1G	.
=45	=45	=45	=45
0F	1.c	1F	1.a
.	.	1r	.
.	2c	.	2a
=46	=46	=46	=46
0r	1c	0r	2a
.	.	.	4g
.	.	.	4f
.	2c	.	2e
.	[2d	.	[2f
=47	=47	=47	=47
0r	4d]	0r	4f]
.	4c	.	4e
.	4B-	.	4d
.	4A	.	4c
.	1B-	.	1d
=48	=48	=48	=48
1.F	1c	1.A	[0c
.	1r	.	.
2F	.	2A	.
=49	=49	=49	=49
2F	0r	1A	0c]
4E	.	.	.
4D	.	.	.
2C	.	1A	.
2F	.	.	.
=50	=50	=50	=50
2D	0r	0B-	0r
2.G	.	.	.
4F	.	.	.
4E	.	.	.
4D	.	.	.
=51	=51	=51	=51
1C	0r	1c	0r
1r	.	1r	.
=52	=52	=52	=52
1.F	0r	1.A	0r
2F	.	2A	.
=53	=53	=53	=53
1F	0r	1A	0r
2F	.	2A	.
[2G	.	[2B-	.
=54	=54	=54	=54
4G]	0r	4B-]	0r
4F	.	4A	.
1F	.	4G	.
.	.	4F	.
.	.	1G	.
2E	.	.	.
=55	=55	=55	=55
1F	0r	1F	0r
1r	.	1r	.
=56	=56	=56	=56
1.F	1.c	1.f	1.a
2F	2c	2f	2a
=57	=57	=57	=57
0F	1c	[0f	1a
.	1c	.	1a
=58	=58	=58	=58
0BB-	1d	0f]	1b-
.	1d	.	1b-
=59	=59	=59	=59
0F	2.c	1f	1.a
.	4B-	.	.
.	2A	1F	.
.	[2c	.	4g
.	.	.	4f
=60	=60	=60	=60
0C	2c]	2G	1e
.	4B-	1c	.
.	4A	.	.
.	2G	.	1r
.	[2c	4B-	.
.	.	4A	.
=61	=61	=61	=61
1C	4c]	2G	1e
.	4B-	.	.
.	4A	2c	.
.	4G	.	.
[1D	[1F	2A	1f
.	.	[2d	.
=62	=62	=62	=62
1D]	0F_	4d]	2.d
.	.	4c	.
.	.	4d	.
.	.	4e	4c
[1BB-	.	2f	4d
.	.	.	4e
.	.	[2d	[2f
=63	=63	=63	=63
2BB-]	1F]	4d]	4f]
.	.	4c	4d
2C	.	1c	2e
1D	1F	.	1f
.	.	2Bni	.
=64	=64	=64	=64
0C	1G	1c	2.e
.	.	.	4f
.	1G	1r	2g
.	.	.	[2a
=65	=65	=65	=65
1D	0F	1A	4a]
.	.	.	4g
.	.	.	4f
.	.	.	4e
1BB-	.	1B-	1d
=66	=66	=66	=66
1C	2r	2G	1e
.	2G	2c	.
1D	2F	2A	1f
.	[2B-	[2d	.
=67	=67	=67	=67
1BB-	4B-]	4d]	1d
.	4A	4c	.
.	4G	4B-	.
.	4F	4A	.
1C	1E	1G	[1g
=68	=68	=68	=68
0D	0F	2r	2g]
.	.	2.A	2f
.	.	.	[1f
.	.	4G	.
.	.	4A	.
.	.	4B-	.
=69	=69	=69	=69
0C	1G	0c	1f]
.	1G	.	1e
=70	=70	=70	=70
2.FF	[0F	2.A	0f
4GG	.	4B-	.
2AA	.	2c	.
2BB-	.	2d	.
=71	=71	=71	=71
2FF	0F]	2.A	2r
2BB-	.	.	2d
.	.	4B-	.
2AA	.	2c	2c
2BB-	.	[2F	2d
=72	=72	=72	=72
2FF	1r	4F]	2A
.	.	4E	.
2BB-	.	4D	2d
.	.	4C	.
2AA	1F	2.F	2c
[2BB-	.	.	[2d
.	.	4E	.
=73	=73	=73	=73
4BB-]	1F	4D	4d]
4AA	.	4C	4c
4GG	.	1C	2A
4FF	.	.	.
1GG	2D	.	1B-
.	2E	2BB-	.
=74	=74	=74	=74
[0FF	[0F	1C	0A
.	.	2r	.
.	.	[2C	.
=75	=75	=75	=75
0FF]	0F]	2C]	1r
.	.	4BB-	.
.	.	4C	.
.	.	2D	2r
.	.	2C	[2c
=76	=76	=76	=76
0FF	0r	1F	2c]
.	.	.	4B-
.	.	.	4c
.	.	2r	2d
.	.	[2F	2c
=77	=77	=77	=77
0r	0r	2F]	1f
.	.	4E	.
.	.	4F	.
.	.	2G	2r
.	.	2F	[2f
=78	=78	=78	=78
0r	0r	1A	2f]
.	.	.	4e
.	.	.	4f
.	.	2r	2g
.	.	[2A	2f
=79	=79	=79	=79
0r	0r	2A]	1a
.	.	4G	.
.	.	4A	.
.	.	2B-	2r
.	.	2A	[2a
=80	=80	=80	=80
0r	0r	1c	2a]
.	.	.	4g
.	.	.	4a
.	.	1d	2b-
.	.	.	2a
=81	=81	=81	=81
0r	0r	2c	1cc
.	.	1f	.
.	.	.	1b-
.	.	2e	.
=82	=82	=82	=82
[0F	1.c	0f	1a
.	.	.	1r
.	4B-	.	.
.	4c	.	.
=83	=83	=83	=83
0F]	2d	0r	0r
.	2c	.	.
.	1A	.	.
=84	=84	=84	=84
0E	1r	0r	0r
.	1c	.	.
=85	=85	=85	=85
1F	2A	0r	0r
.	2.d	.	.
1D	.	.	.
.	4c	.	.
.	4B-	.	.
.	4A	.	.
=86	=86	=86	=86
1E	1G	1r	1r
1F	1F	2r	2.a
.	.	[2f	.
.	.	.	4g
=87	=87	=87	=87
0r	1r	4f]	4a
.	.	4e	4b-
.	.	4d	1cc
.	.	4c	.
.	1G	1d	.
.	.	.	2bni
=88	=88	=88	=88
2r	2.A	1c	1cc
2.F	.	.	.
.	4G	.	.
.	4A	1r	1r
4E	4B-	.	.
4D	[2c	.	.
4C	.	.	.
=89	=89	=89	=89
1D	2c]	1r	0r
.	2Bni	.	.
1C	1c	1e	.
=90	=90	=90	=90
[0F	1r	2f	2.a
.	.	4e	.
.	.	4d	4b-
.	1A	1c	2cc
.	.	.	[2a
=91	=91	=91	=91
1F]	1c	1A	4a]
.	.	.	4g
.	.	.	4f
.	.	.	4e
1BB-	1B-	2B-	1d
.	.	[2F	.
=92	=92	=92	=92
1F	1A	4F]	2c
.	.	4G	.
.	.	4A	1f
.	.	4B-	.
1C	1G	1c	.
.	.	.	2e
=93	=93	=93	=93
1D	[0F	1A	1f
2r	.	1B-	2.d
2BB-	.	.	.
.	.	.	4e
=94	=94	=94	=94
2AA	0F]	2r	2f
2BB-	.	2B-	2d
2FF	.	2A	2c
[2BB-	.	2B-	[2d
=95	=95	=95	=95
4BB-]	1r	2F	4d]
4AA	.	.	4c
2BB-	.	2B-	4d
.	.	.	4e
2FF	[1F	2A	1f
[2BB-	.	[2d	.
=96	=96	=96	=96
2BB-]	1F]	4d]	2d
.	.	4c	.
2C	.	1c	2e
1D	1F	.	1f
.	.	2Bni	.
=97	=97	=97	=97
1C	[0G	0c	2e
.	.	.	1g
2r	.	.	.
2C	.	.	4f
.	.	.	4e
=98	=98	=98	=98
2BB-	0G]	2r	2d
2C	.	2c	2e
2GG	.	2B-	2d
[2C	.	2c	[2e
=99	=99	=99	=99
4C]	1r	2G	4e]
4BB-	.	.	4d
2C	.	2c	4e
.	.	.	4f
2GG	[1G	2B-	1g
[2C	.	[2e-Xi	.
=100	=100	=100	=100
2C]	1G]	4e-]	2e
.	.	4d	.
2D	.	1d	2f
1E-Xi	1G	.	1g
.	.	2c	.
=101	=101	=101	=101
1D	0A	0d	2f
.	.	.	1a
2r	.	.	.
2D	.	.	4g
.	.	.	4f
=102	=102	=102	=102
2C	1r	2r	2e
2D	.	2d	2f
2AA	[1A	2c	2e
[2F	.	2d	[2a
=103	=103	=103	=103
4F]	1A]	2A	4a]
4E	.	.	4g
2.D	.	2.f	4f
.	.	.	4e
.	1A	.	1f
4C	.	4e	.
4BB-	.	[2d	.
4AA	.	.	.
=104	=104	=104	=104
0GG	[0B-	4d]	2r
.	.	4c	.
.	.	4B-	2.g
.	.	4A	.
.	.	2G	.
.	.	.	4f
.	.	4F	4g
.	.	4E	4a
=105	=105	=105	=105
1r	0B-]	2D	4b-
.	.	.	4a
.	.	2.G	4b-
.	.	.	4cc
1GG	.	.	2dd
.	.	4F	.
.	.	4G	[2g
.	.	4A	.
=106	=106	=106	=106
2.G	1r	2.B-	2g]
.	.	.	4f
4F	.	4A	4e
4G	[1B-	4B-	2d
4A	.	4c	.
[2B-	.	4d	[2dd
.	.	4c	.
=107	=107	=107	=107
2B-]	1B-]	4d	2dd]
.	.	4e	.
2A	.	1f	2cc
1G	1B-	.	1b-
.	.	2e	.
=108	=108	=108	=108
2r	0c	1f	1a
2F	.	.	.
2E	.	2r	2g
2F	.	2f	2a
=109	=109	=109	=109
2C	1c	2e	2g
1F	.	2f	1a
.	1r	2.c	.
2E	.	.	2g
.	.	4B-	.
=110	=110	=110	=110
2F	1.c	2A	2a
2E	.	2G	2r
2r	.	2F	2.a
[2F	2c	[2A	.
.	.	.	4g
=111	=111	=111	=111
4F]	0c	4A]	2a
4E	.	4G	.
2F	.	4A	2f
.	.	4B-	.
2C	.	2.c	2e
[2F	.	.	[2a
.	.	4B-	.
=112	=112	=112	=112
4F]	1c	4A	4a]
4E	.	4G	4g
4D	.	1G	2e
4C	.	.	.
1D	2A	.	1f
.	2B-	2F	.
=113	=113	=113	=113
1C	0c	1G	1e
1F	.	1A	2r
.	.	.	[2c
=114	=114	=114	=114
1C	0r	1G	4c]
.	.	.	4d
.	.	.	2e
1D	.	[1F	2d
.	.	.	[2f
=115	=115	=115	=115
1BB-	0r	1F]	4f]
.	.	.	4e
.	.	.	4d
.	.	.	4c
1D	.	1F	2d
.	.	.	[2f
=116	=116	=116	=116
0C	0r	0G	2f]
.	.	.	4e
.	.	.	4d
.	.	.	1e
!!LO:TX:Z=12:t=[Cut-O/3 mensruation]
=117	=117	=117	=117
*M3/1	*M3/1	*M3/1	*M3/1
*met(O|/3)	*met(O|/3)	*met(O|/3)	*met(O|/3)
1FF	0c	0F	0f
1AA	.	.	.
1GG	1B-	1r	1r
=118	=118	=118	=118
0FF	0A	0.rr	0cc
1r	1G	.	1b-
=119	=119	=119	=119
0.rr	0F	0c	0a
.	1G	1B-	1g
=120	=120	=120	=120
1.F	0A	0A	0f
2D	.	.	.
1E	1r	1G	1g
=121	=121	=121	=121
1F	0c	0F	0a
1A	.	.	.
1G	1B-	1G	1r
=122	=122	=122	=122
0F	0A	0A	0cc
1r	1G	1B-	1b-
=123	=123	=123	=123
1F	1F	0c	1a
1C	1E	.	1.g
[1D	[1F	1A	.
.	.	.	2f
=124	=124	=124	=124
1D]	1F]	1B-	0f
0C	0G	0c	.
.	.	.	1e
=125	=125	=125	=125
0c	0.F	0A	0f
1B-	.	1B-	1r
=126	=126	=126	=126
0A	0.rr	1.c	0cc
.	.	2d	.
1G	.	1e	1b-
=127	=127	=127	=127
0F	0c	0f	0a
1G	1B-	1r	1g
=128	=128	=128	=128
0A	0A	1.F	0f
.	.	2D	.
1r	1G	1E	1g
=129	=129	=129	=129
0c	0F	1F	0a
.	.	1A	.
1B-	1G	1G	1r
=130	=130	=130	=130
0A	0A	0F	0cc
1G	1r	1r	1b-
=131	=131	=131	=131
1F	0c	1F	1a
1E	.	1G	1.g
[1D	[1F	1A	.
.	.	.	2f
=132	=132	=132	=132
1D]	1F]	1B-	0f
0C	0G	0c	.
.	.	.	1e
=133	=133	=133	=133
*M2/1	*M2/1	*M2/1	*M2/1
*met(C|)	*met(C|)	*met(C|)	*met(C|)
1D	0F	1A	1f
1BB-	.	2.B-	1d
.	.	4A	.
=134	=134	=134	=134
1C	1E	4G	1e
.	.	4F	.
.	.	4E	.
.	.	4D	.
2AA	2F	2C	2r
[2BB-	[2G	[2D	[2d
=135	=135	=135	=135
2BB-]	4G]	4D]	4d]
.	4F	4C	4e
2AA	1F	1C	2f
1GG	.	.	2g
.	2E	2BB-	2b-
=136	=136	=136	=136
0FF	1F	1C	2a
.	.	.	2.cc
.	2C	2.F	.
.	.	.	4b-
.	[2F	.	[2a
.	.	4G	.
=137	=137	=137	=137
1F	4F]	1A	2a]
.	4G	.	.
.	4A	.	4g
.	4B-	.	4f
1C	1c	1G	1e
=138	=138	=138	=138
1D	2A	2r	1f
.	2B-	2F	.
2.C	1c	[1G	2.e
4D	.	.	4f
=139	=139	=139	=139
2E	2c	2G]	2g
2.F	1c	2.F	1a
4E	.	4G	.
2F	4B-	4A	4g
.	4A	4B-	4f
=140	=140	=140	=140
1C	1G	2.c	1e
.	.	4B-	.
2F	2A	4c	2a
.	.	4d	.
[2E-Xi	[2B-	[2e-Xi	[2g
=141	=141	=141	=141
2E-]	4B-]	2e-]	4g]
.	4A	.	4f
2F	4G	2c	1f
.	4F	.	.
1C	1G	1c	.
.	.	.	2e
=142	=142	=142	=142
1FF	1F	1c	1f
1r	1r	1r	1r
=143	=143	=143	=143
1.F	1.c	1.f	1.a
2F	2c	2f	2a
=144	=144	=144	=144
1F	1c	1f	1a
1F	1c	1f	1a
=145	=145	=145	=145
1BB-	0d	0f	0b-
1BB-	.	.	.
=146	=146	=146	=146
1F	2c	2f	1a
.	1f	1c	.
1G	.	.	1g
.	2e	2B-	.
=147	=147	=147	=147
1F	1f	2c	1a
.	.	4B-	.
.	.	4A	.
2r	1d	2G	1b-
2BB-	.	2F	.
=148	=148	=148	=148
1F	2c	2f	1a
.	1f	1c	.
1G	.	.	2r
.	2e	2B-	2g
=149	=149	=149	=149
1F	1f	2c	1a
.	.	4B-	.
.	.	4A	.
2r	1d	2G	1b-
2BB-	.	2F	.
=150	=150	=150	=150
2F	2c	2f	2a
2G	2B-	2e	2g
2F	2c	2f	2a
2BB-	2d	2f	2b-
=151	=151	=151	=151
2F	2c	2f	2a
2G	2B-	2e	2g
2F	1c	[1f	2a
4E	.	.	4g
4D	.	.	4f
=152	=152	=152	=152
2C	2c	2f]	2e
2D	2A	2.d	1f
2BB-	2B-	.	.
.	.	4c	.
2C	[2G	[2c	2e
=153	=153	=153	=153
1D	2G]	2c]	1f
.	2F	2B-	.
2r	1G	2.c	1e
2C	.	.	.
.	.	4B-	.
=154	=154	=154	=154
2D	2r	2A	2r
2C	2G	2c	2e
2D	2F	2B-	2d
2C	2E	[2c	[2g
=155	=155	=155	=155
1D	1F	2c]	4g]
.	.	.	4f
.	.	2B-	1f
1C	1G	1c	.
.	.	.	2e
=156	=156	=156	=156
1FF	0F	[0c	2.f
.	.	.	4g
1FF	.	.	4a
.	.	.	4b-
.	.	.	[2cc
=157	=157	=157	=157
1FF	0A	0c_	2cc]
.	.	.	2b-
1FF	.	.	2a
.	.	.	4g
.	.	.	4f
=158	=158	=158	=158
[0C	[0G	0c_	[0e
=159	=159	=159	=159
0C;]	0G;]	0c;]	0e;]
=160	=160	=160	=160
0FFl	0Fl	0cl	0fl
==	==	==	==
*-	*-	*-	*-
!!!RDF**kern: l=long note in original notation
!!!RDF**kern: i = editorial accidental
!!!ENC: Jesse Rodin 8/17/2013
!!!END: 2020/10/21/
!!!EED: Jesse Rodin
!!!EEV: 2021/05/05/
!!attribution-level@Jos: 4a (the rest [double question mark])
!!!ONB: Translated from MusicXML and edited on 2021/05/05/ by Craig Sapp
!!muse2ps: C^@{COA}?\n@{SCT}^i2I150v85,85,85,150z18c130
